X: 7
T: Splendid Isolation
R: reel
M: 4/4
L: 1/8
K: Gdor
F |: GBAF   GdcA       | G/G/G AG       FGAc  |  dAcA GABc           |  dggf g2ga         |
     bgag    fd   d/d/d      | efge  fdcA           |  G/G/G AG FGAc           |1 dAcA [G3G,3]F    :|2 dAcA GABd||
  |: g2      ag   fd d/d/d   | gfdc  Acdc           |  AG   G/G/G Acdc     |  AG   G/G/G F2 FE  |
     F2AF    GFAF            | G/G/G AG       FGAc  | dg   g/g/g fgag |1  fdcA GABd :|   |2 fdcA  [G3G,3]F||

%  |: g2      ag   fd d/d/d   | gfdc  Acdc           |  AG   G/G/G Acdc     |  AG   G/G/G F2 FE  |
%  ~F2AF GdcA         | G/G/G AG       FGAc  | dg   g/g/g fgag |1  fdcA GABd :|   |2 fdcA  [G3G,3]F||

%  |: g2      ag   fd d/d/d   | gfdc  Acdc           |  AG   G/G/G Acdc     |  AG   G/G/G F2 FE  |
%  FGAF GdcA         | G/G/G AG       FGAc  | dg   g/g/g fgag |1  fdcA GABd :|   |2 fdcA  [G3G,3]F||

